svg/design/quill_pen_fill.svg

<?xml version="1.0" encoding="UTF-8"?>
<svg width="24px" height="24px" viewBox="0 0 24 24" version="1.1" xmlns="http://www.w3.org/2000/svg" xmlns:xlink="http://www.w3.org/1999/xlink">
    <title>quill_pen_fill</title>
    <g id="页面-1" stroke="none" stroke-width="1" fill="none" fill-rule="evenodd">
        <g id="Design" transform="translate(-480.000000, -48.000000)">
            <g id="quill_pen_fill" transform="translate(480.000000, 48.000000)">
                 <path d="M24,0 L24,24 L0,24 L0,0 L24,0 Z M12.5934901,23.257841 L12.5819402,23.2595131 L12.5108777,23.2950439 L12.4918791,23.2987469 L12.4918791,23.2987469 L12.4767152,23.2950439 L12.4056548,23.2595131 C12.3958229,23.2563662 12.3870493,23.2590235 12.3821421,23.2649074 L12.3780323,23.275831 L12.360941,23.7031097 L12.3658947,23.7234994 L12.3769048,23.7357139 L12.4804777,23.8096931 L12.4953491,23.8136134 L12.4953491,23.8136134 L12.5071152,23.8096931 L12.6106902,23.7357139 L12.6232938,23.7196733 L12.6232938,23.7196733 L12.6266527,23.7031097 L12.609561,23.275831 C12.6075724,23.2657013 12.6010112,23.2592993 12.5934901,23.257841 L12.5934901,23.257841 Z M12.8583906,23.1452862 L12.8445485,23.1473072 L12.6598443,23.2396597 L12.6498822,23.2499052 L12.6498822,23.2499052 L12.6471943,23.2611114 L12.6650943,23.6906389 L12.6699349,23.7034178 L12.6699349,23.7034178 L12.678386,23.7104931 L12.8793402,23.8032389 C12.8914285,23.8068999 12.9022333,23.8029875 12.9078286,23.7952264 L12.9118235,23.7811639 L12.8776777,23.1665331 C12.8752882,23.1545897 12.8674102,23.1470016 12.8583906,23.1452862 L12.8583906,23.1452862 Z M12.1430473,23.1473072 C12.1332178,23.1423925 12.1221763,23.1452606 12.1156365,23.1525954 L12.1099173,23.1665331 L12.0757714,23.7811639 C12.0751323,23.7926639 12.0828099,23.8018602 12.0926481,23.8045676 L12.108256,23.8032389 L12.3092106,23.7104931 L12.3186497,23.7024347 L12.3186497,23.7024347 L12.3225043,23.6906389 L12.340401,23.2611114 L12.337245,23.2485176 L12.337245,23.2485176 L12.3277531,23.2396597 L12.1430473,23.1473072 Z" id="MingCute" fill-rule="nonzero"></path>
                <path d="M6.80937,17.8436 C6.778,18.0912 6.53715,20.5727 6.5,21 C6.45312,21.5391 6.05228,22 5.5,22 C4.94771,22 4.5,21.5522 4.5,21 C4.5,20.4288 4.6163,19.3305 4.72139,18.4398 C4.9257,16.7082 5.1667,15.0135 5.70816,13.3496 C6.33265,11.4305 7.45803,8.97098 9.46454,6.96447 C13.3986,3.03043 19.1172,2.44872 19.2618,2.43416 C19.3385,2.42645 19.4974,2.41874 19.6844,2.48198 C19.8978,2.55416 20.0836,2.69913 20.2057,2.88826 C21.1973,4.37858 20.9531,6.5981 19.7386,7.89549 C19.7512,8.01579 19.7421,8.14042 19.7083,8.26411 C19.5194,8.95363 19.2753,9.67684 18.9594,10.4002 C18.4078,11.6631 17.6313,12.9399 16.5356,14.0355 C14.4856,16.0855 11.7943,17.0271 9.692,17.4663 C8.51607,17.712 7.49328,17.8071 6.80937,17.8436 Z" id="路径" fill="#09244B"></path>
            </g>
        </g>
    </g>
</svg>

<svg xmlns="http://www.w3.org/2000/svg" width="24" height="24"><g fill="none" fill-rule="evenodd"><path d="M24 0v24H0V0h24ZM12.593 23.258l-.011.002-.071.035-.02.004-.014-.004-.071-.035c-.01-.004-.019-.001-.024.005l-.004.01-.017.428.005.02.01.013.104.074.015.004.012-.004.104-.074.012-.016.004-.017-.017-.427c-.002-.01-.009-.017-.017-.018Zm.265-.113-.013.002-.185.093-.01.01-.003.011.018.43.005.012.008.007.201.093c.012.004.023 0 .029-.008l.004-.014-.034-.614c-.003-.012-.01-.02-.02-.022Zm-.715.002a.023.023 0 0 0-.027.006l-.006.014-.034.614c0 .012.007.02.017.024l.015-.002.201-.093.01-.008.004-.011.017-.43-.003-.012-.01-.01-.184-.092Z"/><path fill="#09244B" d="M6.81 17.844c-.032.247-.273 2.729-.31 3.156-.047.54-.448 1-1 1a1 1 0 0 1-1-1c0-.571.116-1.67.221-2.56.205-1.732.446-3.427.987-5.09.625-1.92 1.75-4.379 3.757-6.386 3.934-3.934 9.652-4.515 9.797-4.53a1.005 1.005 0 0 1 .944.454c.991 1.49.747 3.71-.467 5.007a1 1 0 0 1-.03.37 15.73 15.73 0 0 1-.75 2.135c-.551 1.263-1.328 2.54-2.423 3.636-2.05 2.05-4.742 2.991-6.844 3.43-1.176.246-2.199.341-2.883.378Z"/></g></svg>
